X: 1565
T: Liverpool Hornpipe., The
T: crannciuil li.berpuil.
R:Hornpipe
B:O'Neill's 1565
M:C|
K:D
(AG)|FDFA dfaf|gfec dcBA|G2BG F2 AF|EDEF GFED|
FDFA dfaf|gfec dcBA|dfaf bgec|d2 d2 d2:|
A2|d2fd c2 dc|BABc dcBA|G2BG C2 AF|EDEF GFED|
FDFA dfaf|gfec dcBA|dfaf bgec|d2 d2 d2:|
A2|dfdf cece|Bcde dcBA|GBGB FAFA|EFGA GFED|
FDFA dfaf|gefd dcBA|afdf gece|d2 d2 d2:|


